X: 305688
M: 2/4
L: 1/16
K: A
e2 |\
b4 gfgb | e4 dcdB | A2A2B2B2 | cBcd e2e2 |\
a4 gfgb | e4 dcdB | A2A2 BABc | A2A2A2 H|]
c4 dcBc | A2AA e4 | f2e2d2c2 | e3c B4 |\
c4 dcBc | A2AA a4 | f2f2 b2b2 | e4 ^d>ef>"^D.C."g |]


